svgs/sharp-solid/print-slash.svg

<svg xmlns="http://www.w3.org/2000/svg" viewBox="0 0 640 512"><!--! Font Awesome Pro 6.6.0 by @fontawesome - https://fontawesome.com License - https://fontawesome.com/license (Commercial License) Copyright 2024 Fonticons, Inc. --><path d="M523.9 384l52.1 0 0-192-299.4 0L192 126.3 192 64l226.7 0L448 93.3l0 66.7 64 0 0-80 0-13.3-9.4-9.4-48-48L445.3 0 432 0 160 0 128 0l0 32 0 44.6L48.4 14.8 29.4 .1 0 38 19 52.7 591.5 497.2l19 14.7L639.9 474l-19-14.7-97-75.3zM512 499.4L446.8 448 192 448l0-64 0-16 0-16 132.9 0L121.8 192 64 192l0 192 64 0 0 96 0 32 32 0 320 0 32 0 0-12.6zM472 248l48 0 0 48-48 0 0-48z"/></svg>

<svg xmlns="http://www.w3.org/2000/svg" viewBox="0 0 640 512"><!--! Font Awesome Pro 6.4.2 by @fontawesome - https://fontawesome.com License - https://fontawesome.com/license (Commercial License) Copyright 2023 Fonticons, Inc. --><path d="M523.9 384H576V192H276.6L192 126.3V64H418.7L448 93.3V160h64V80 66.7l-9.4-9.4-48-48L445.3 0H432 160 128V32 76.6L48.4 14.8 29.4 .1 0 38 19 52.7 591.5 497.2l19 14.7L639.9 474l-19-14.7-97-75.3zM512 499.4L446.8 448H192V384 368 352H324.9L121.8 192H64V384h64v96 32h32H480h32V499.4zM472 248h48v48H472V248z"/></svg>
